X:275
T:Polsness - Serra ur Andreas Hööks notbok
T:(SmM I:275)
R:Polska
O:Växjö, Småland
B:Småländsk Musiktradition
S:Andreas Höök
N:ca 1685-1710
M:3/4
L:1/8
K:Cdor
c2 c=B cd|=BA B2 A2|c2 cd ef|dc d4:|
|:g2 gf g_a|f2 f4|e2 ed ef|d2 d4|g2 gf g_a|f2 f4|ed d3 c|c=B c4:|

